X:1
T:Title
%%score ( 1 2 3 ) { 4 | 5 }
L:1/8
Q:1/4=110
M:4/4
K:F
V:1 treble nm="Grand Piano, Soprano"
V:2 treble 
V:3 treble 
V:4 bass nm="Choir Pad, Clarion, CMD"
V:5 bass 
V:1
 C2 [CA]2 [FA]2 [FA]2 | FG [CA]2 [FA]2 [CA]2 | [CD]2 [B,B]2 [GB]2 [GB]2 | [GB]2 B2- [EB-]2 [FB]2 | %4
w: By~George~E.~Alvis,~1890 * * *||||
 G2 [FA]2 [FA]2 [FA]2 | F[EG] [FA]2 [D=B]2 [Cc]2 | [Fd]2 [Ee]2 [Fd]2 [FA]2 | %7
w: |||
 [F=B]2 c2- [Ec-][Dc-] [Ec]2 | [Ec]2 d2- d/ z/ c [DA]2 | [^FA]2 [Fc]2 [GB]2 [EG]2 | %10
w: |||
 [EA]2 D2 z F [FA]2 | [FG]2 [EG]6 | C2 [CA]2 [FA]2 [FA]2 | F[EG] [FA]2 B-[DB] [Cc]2 | %14
w: ||||
 ^c-[Ec] [Dd]2 [DG]2 [CA]2 | [EG]2 [CF]6- | [CF]2 z2 z4 |] %17
w: |||
V:2
 x8 | C2 z2 z4 | x8 | z2 G2 z4 | x8 | x8 | x8 | z2 F2 z4 | z2 D2 ^F2 z2 | x8 | z2 .F4 z2 | x8 | %12
 x8 | z4 .E2 z2 | .F2 z2 z4 | x8 | x8 |] %17
V:3
 x8 | x8 | x8 | x8 | x8 | x8 | x8 | x8 | x8 | x8 | z4 D2 z2 | x8 | x8 | x8 | x8 | x8 | x8 |] %17
V:4
 E,2 F,2 C2 C2 | F,E, F,2 C2 F,2 | ^F,2 G,2[K:treble] D2 D2 | ^C2 =C6 | C2 C2 C2 C2 | %5
 C[K:bass]B, A,2 G,F, G,2 | G,2 G,2 A,2 A,2 | G,2 G,6 | A,2 A,2 A,2 A,2 | D2 _E2 D2 C2 | %10
 A,2[K:bass] A,2 A,2 D2 | =B,2 C6 | CB, A,2[K:treble] C2 C2 | C2 C2 B,2[K:bass] A,2 | %14
 A,G, F,2 F,2 F,2 | B,2 A,6- | A,2 z2 z4 |] %17
V:5
 C,2 z2 C,2 F,2 | A,,C, z2 C,2 z2 | D,2 z2 D,2 G,2 | F,2 E,2 C,2 D,2 | E,2 F,2 C,2 F,2 | %5
 A,G, F,2 z2 E,2 | =B,,2 C,2 F,2 D,2 | z2 C,2 G,,2 C,B,, | A,,G,, ^F,,2 D,2 ^F,2 | %9
 D,2 G,2 G,,2 C,2 | ^C,2 D,2 =C,2 =B,,2 | G,,2 C,2 G,,2 C,B,, | A,,G,, F,,2 C,2 F,2 | %13
 A,,C, F,,2 G,,2 A,,2 | A,,2 B,,2 =B,,2 C,2 | C,2 [F,,F,]6- | [F,,F,]2 z2 z4 |] %17

